images/icons/edit.svg

<svg width="20" height="20" viewBox="0 0 20 20" fill="none" xmlns="http://www.w3.org/2000/svg">
<path d="M18.8174 4.62231L15.5563 1.34454C15.3408 1.13013 15.0492 1.00977 14.7452 1.00977C14.4412 1.00977 14.1496 1.13013 13.9341 1.34454L2.37299 12.889L1.31743 17.4445C1.28102 17.6111 1.28227 17.7836 1.32108 17.9496C1.3599 18.1156 1.43531 18.2708 1.5418 18.4039C1.64829 18.537 1.78317 18.6447 1.93658 18.719C2.09 18.7933 2.25808 18.8324 2.42854 18.8334C2.50797 18.8414 2.588 18.8414 2.66743 18.8334L7.27299 17.7779L18.8174 6.24454C19.0318 6.02904 19.1522 5.73741 19.1522 5.43342C19.1522 5.12943 19.0318 4.83781 18.8174 4.62231ZM6.71743 16.7779L2.40076 17.6834L3.3841 13.4501L12.0341 4.83342L15.3674 8.16676L6.71743 16.7779ZM16.1119 7.3612L12.7785 4.02787L14.7119 2.10565L17.9897 5.43898L16.1119 7.3612Z" fill="white"/>
</svg>

<svg width="20" height="20" fill="none" xmlns="http://www.w3.org/2000/svg"><path d="M18.817 4.622l-3.26-3.277a1.15 1.15 0 00-1.623 0L2.373 12.889l-1.056 4.556a1.145 1.145 0 001.112 1.388c.079.008.159.008.238 0l4.606-1.055L18.817 6.245a1.15 1.15 0 000-1.623zm-12.1 12.156l-4.316.905.983-4.233 8.65-8.617 3.333 3.334-8.65 8.61zm9.395-9.417l-3.333-3.333 1.933-1.922 3.278 3.333-1.878 1.922z" fill="#fff"/></svg>
